X: 32080
T: Penobscot Memory
R: waltz
M: 3/4
K: Gmajor
D/ G3/2A/|Bd- d3/2e/ d3/2B/|A=F- F3/2G/ (3AGF|G2G3/2A/ B3/2c/|B2G2 (3GAB|
c2e2 (3edc|d3/2B/ G3/2G/ ^F3/2G/|A2A3/2B/ A3/2G/|F3/2G/ A3/2D/ G3/2A/||
Bd- d3/2e/ d3/2B/|A=F- F3/2G/ (3AGF|G2G3/2A/ B3/2c/|B2G2D2
EG- G3/2E/ G3/2E/|A3/2F/ D3/2A/ B3/2A/|G2G3/2F/ G3/2A/|1 G2-G3/2:|2 G4|
|:F2|E4B2|e4d3/2e/|f2f3/2g/ f3/2e/|d2f2a2|
g4g3/2a/|g2f2e2|d B3B3/2A/|B2G2F2||
E4B2|e4d3/2e/|f3/2e/ d2d3/2B/|e2d2 (3BAG|
A2A3/2G/ A3/2B/|c2B2A2|G2G3/2E/ D3/2E/|G4:|

